X: 29492
T: Nikita's Hackbrett
R: mazurka
M: 3/4
K: Dmajor
|:A>F|D>F A2 d2|c2 A2 A2|A>c e2 g2|f2 d2 A>F|
D>F A>d F>d|c2 A>^G A2|A>c e>A c>e|d2 D2:|
|:f>g|a>f d2 A2|c2 B2 B2|A>c e2 g2|f>A d>A (3efg|
a>A d>A (3FGA|c2 B>^A B2|A>c e>A c>e|d2 D2:|

